X:1
T:Bountiful Harvest
T:Bountiful Harvest
T:Ira David Sankey
T:Frances Jane (Fanny) Crosby, 1895
T:Public Domain Courtesy of the Cyber Hymnal™
T:Public Domain Courtesy of the Cyber Hymnal™
C:Ira David Sankey
Z:Public Domain
Z:Courtesy of the Cyber Hymnal™
%%score ( 1 2 ) ( 3 4 )
L:1/8
Q:1/4=90
M:6/8
K:F
V:1 treble 
V:2 treble 
V:3 bass 
V:4 bass 
V:1
 [FA] | [Fc][Fc][Fc] [Fc][Fd][FA] | [Fc][Fc][Fc] [Fc][FA][CF] | [CE][EG][FA] [GB][FA][EG] | %4
w: 1.~We|praise Thee, O Lord, for the|boun- ti- ful har- vest That|now has been ga- thered and|
w: 2.~We|praise Thee, O Lord, for the|boun- ti- ful har- vest, We|praise Thee for sun- shine, the|
w: 3.~We|praise Thee, O Lord, for the|won- der- ful to- ken That|shines as it shone on Thy|
w: 4.~We|praise Thee, O Lord, for Thy|won- der- ful mer- cies, And|while to Thy glo- ry our|
 [FA][FA][FB] [Fc]2 [Fc] | [Fd][Fd][Fd] [Fd][Fe][Fd] | [Fc][Fc][Fc] [Fc][FA][CF] | %7
w: gar- nered with care; Re-|ward- ing the toil of the|sow- er and reap- er, While|
w: dew and the rain; For|soft sum- mer breez- es so|grace- ful- ly bend- ing The|
w: ser- vants of old, The|pledge and as- sur- ance that|seed- time and har- vest From|
w: voic- es we raise, O|Thou that reg- ard- est the|prayers of Thy peo- ple, Ac-|
 [CE][EG][FA] [GB][FA][EG] | F3- F2 ||"^Refrain" F/F/ | [Fd]4 [Fe][Fd] | [Fc]3 [FA]2 [Fc] | %12
w: all in its bless- ings may|share. *||||
w: bright gold- en bil- lows of|grain. *|For the|boun- ti- ful|har- vest We|
w: earth Thou wilt ne- ver with-|hold. *||||
w: cept our thanks- giv- ing and|praise. *||||
 [Ec][EG][FA] [GB][Ac][GB] | [FA][FA][FB] [Fc]2 [Fc]/[Fc]/ | [Fd]4 [Fe][Ff] | [Af]3 [Fc]2 [Fd] | %16
w: ||||
w: praise Thee, we thank Thee and|bless Thee, O Lord: For the|boun- ti- ful|har- vest We|
w: ||||
w: ||||
 [Fc][FA][FB] [FA][EA][EG] | F3- F2 |] %18
w: ||
w: praise Thee and bless Thee, O|Lord. *|
w: ||
w: ||
V:2
 x | x6 | x6 | x6 | x6 | x6 | x6 | x6 | F3- F2 || F/F/ | x6 | x6 | x6 | x6 | x6 | x6 | x6 | %17
 F3- F2 |] %18
V:3
 [F,C] | [F,A,][F,A,][F,A,] [F,A,][F,A,][F,C] | [F,A,][F,A,][F,A,] [F,A,][F,C][F,A,] | %3
w: ~|~ ~ ~ ~ ~ ~|~ ~ ~ ~ ~ ~|
 [C,G,][C,C][C,C] [C,C][C,C][C,C] | [F,C][F,C][F,G,] [F,A,]2 [F,A,] | %5
w: ~ ~ ~ ~ ~ ~|~ ~ ~ ~ ~|
 [B,,B,][B,,B,][B,,B,] [B,,B,][B,,C][B,,B,] | [F,A,][F,A,][F,A,] [F,A,][F,C][F,A,] | %7
w: ~ ~ ~ ~ ~ ~|~ ~ ~ ~ ~ ~|
 [C,G,][C,C][C,C] [C,C][C,C][C,B,] | [F,A,]3- [F,A,]2 || [F,A,]/[F,A,]/ | %10
w: ~ ~ ~ ~ ~ ~|~ *|For the|
 [B,,B,][B,,B,][B,,B,] [B,,B,][B,,C][B,,B,] | [F,A,]3 [F,C]2 [F,A,] | %12
w: boun- ti- ful, boun- ti- ful|~ ~ ~|
 [C,G,][C,C][C,C] [C,C][C,C][C,C] | [F,C][F,C][F,G,] [F,A,]2 [F,A,]/[F,A,]/ | %14
w: ~ ~ ~ ~ ~ ~|~ ~ ~ ~ ~ ~|
 [B,,B,][B,,B,][B,,B,] B,[B,C][B,D] | [F,C]3 [F,A,]2 [B,,B,] | [B,,A,][C,C][C,D] [C,C][C,C][C,B,] | %17
w: boun- ti- ful, boun- ti- ful|||
 [F,A,]3- [F,A,]2 |] %18
w: |
V:4
 x | x6 | x6 | x6 | x6 | x6 | x6 | x6 | x5 || x | x6 | x6 | x6 | x6 | x3 B, x2 | x6 | x6 | x5 |] %18

